X: 1
T: the Morning Star
Z: 1997 by John Chambers <jc:trillian.mit.edu>
M: C|
L: 1/8
K: G
|: GA \
| "G"BABG "C"E2FG | "D7"ABAF D2dc | "G"BABG "C"E2AF | "D"D2G2 "G"G2 :|
| AB \
| "C"cBcd efge | "D7"dcBA "G"GFED | "C"cBcd "Em"efge | "D7"f2d2 d2cB |
| "C"cBcd efge | "D7"dcBA "G"GFED | "G"BABG "C"E2AF | "D"D2G2 "G"G2 |]
